;START_OF_HEADER
;HEADER_VERSION:0.1
;FLAVOR:Griffin
;GENERATOR.NAME:Cura_SteamEngine
;GENERATOR.VERSION:5.2.2
;GENERATOR.BUILD_DATE:2023-01-24
;TARGET_MACHINE.NAME:Ultimaker S3
;EXTRUDER_TRAIN.0.INITIAL_TEMPERATURE:0
;EXTRUDER_TRAIN.0.MATERIAL.VOLUME_USED:1769
;EXTRUDER_TRAIN.0.MATERIAL.GUID:fe3982c8-58f4-4d86-9ac0-9ff7a3ab9cbc
;EXTRUDER_TRAIN.0.NOZZLE.DIAMETER:0.4
;EXTRUDER_TRAIN.0.NOZZLE.NAME:AA 0.4
;BUILD_PLATE.INITIAL_TEMPERATURE:0
;PRINT.TIME:2791
;PRINT.GROUPS:1
;PRINT.SIZE.MIN.X:98.668
;PRINT.SIZE.MIN.Y:86.587
;PRINT.SIZE.MIN.Z:0.2
;PRINT.SIZE.MAX.X:131.331
;PRINT.SIZE.MAX.Y:103.413
;PRINT.SIZE.MAX.Z:50
;SLICE_UUID:9aaeda89-4b42-4123-b4eb-52201ed9b4cf
;END_OF_HEADER
;Generated with Cura_SteamEngine 5.2.2
T0
M82 ;absolute extrusion mode

G92 E0
M109 S0
G280 S1
G0 Z20.001
G1 F2700 E-6.5
;LAYER_COUNT:499
;LAYER:0
M106 S0
M204 S1000
M205 X20 Y20

G1 X50 Y100 E0 Z150
G1 X50 Y50 E0 Z150
G1 X100 Y50 E0 Z150
G1 X50 Y100 E0 Z150

G4 P60000

G1 X100 Y100 E0 Z100
G1 X100 Y100 E0 Z120
G1 X100 Y100 E0 Z100
G1 X100 Y100 E0 Z120
G1 X100 Y100 E0 Z100
G1 X100 Y100 E0 Z120
G1 X100 Y100 E0 Z100
G1 X100 Y100 E0 Z120
G1 X100 Y100 E0 Z100
G1 X100 Y100 E0 Z120
G1 X100 Y100 E0 Z100
G1 X100 Y100 E0 Z120
G1 X100 Y100 E0 Z100
G1 X100 Y100 E0 Z120
G1 X100 Y100 E0 Z100
G1 X100 Y100 E0 Z120
G1 X100 Y100 E0 Z100
G1 X100 Y100 E0 Z120
G1 X100 Y100 E0 Z100
G1 X100 Y100 E0 Z120

G1 X100 Y100 E0 Z100
G1 X100 Y100 E0 Z120
G1 X100 Y100 E0 Z100
G1 X100 Y100 E0 Z120
G1 X100 Y100 E0 Z100
G1 X100 Y100 E0 Z120
G1 X100 Y100 E0 Z100
G1 X100 Y100 E0 Z120
G1 X100 Y100 E0 Z100
G1 X100 Y100 E0 Z120
G1 X100 Y100 E0 Z100
G1 X100 Y100 E0 Z120
G1 X100 Y100 E0 Z100
G1 X100 Y100 E0 Z120
G1 X100 Y100 E0 Z100
G1 X100 Y100 E0 Z120
G1 X100 Y100 E0 Z100
G1 X100 Y100 E0 Z120
G1 X100 Y100 E0 Z100
G1 X100 Y100 E0 Z120

G1 X100 Y100 E0 Z100
G1 X100 Y100 E0 Z120
G1 X100 Y100 E0 Z100
G1 X100 Y100 E0 Z120
G1 X100 Y100 E0 Z100
G1 X100 Y100 E0 Z120
G1 X100 Y100 E0 Z100
G1 X100 Y100 E0 Z120
G1 X100 Y100 E0 Z100
G1 X100 Y100 E0 Z120
G1 X100 Y100 E0 Z100
G1 X100 Y100 E0 Z120
G1 X100 Y100 E0 Z100
G1 X100 Y100 E0 Z120
G1 X100 Y100 E0 Z100
G1 X100 Y100 E0 Z120
G1 X100 Y100 E0 Z100
G1 X100 Y100 E0 Z120
G1 X100 Y100 E0 Z100
G1 X100 Y100 E0 Z120

G1 X100 Y100 E0 Z100
G1 X100 Y100 E0 Z120
G1 X100 Y100 E0 Z100
G1 X100 Y100 E0 Z120
G1 X100 Y100 E0 Z100
G1 X100 Y100 E0 Z120
G1 X100 Y100 E0 Z100
G1 X100 Y100 E0 Z120
G1 X100 Y100 E0 Z100
G1 X100 Y100 E0 Z120
G1 X100 Y100 E0 Z100
G1 X100 Y100 E0 Z120
G1 X100 Y100 E0 Z100
G1 X100 Y100 E0 Z120
G1 X100 Y100 E0 Z100
G1 X100 Y100 E0 Z120
G1 X100 Y100 E0 Z100
G1 X100 Y100 E0 Z120
G1 X100 Y100 E0 Z100
G1 X100 Y100 E0 Z120

G1 X100 Y100 E0 Z100
G1 X100 Y100 E0 Z120
G1 X100 Y100 E0 Z100
G1 X100 Y100 E0 Z120
G1 X100 Y100 E0 Z100
G1 X100 Y100 E0 Z120
G1 X100 Y100 E0 Z100
G1 X100 Y100 E0 Z120
G1 X100 Y100 E0 Z100
G1 X100 Y100 E0 Z120
G1 X100 Y100 E0 Z100
G1 X100 Y100 E0 Z120
G1 X100 Y100 E0 Z100
G1 X100 Y100 E0 Z120
G1 X100 Y100 E0 Z100
G1 X100 Y100 E0 Z120
G1 X100 Y100 E0 Z100
G1 X100 Y100 E0 Z120
G1 X100 Y100 E0 Z100
G1 X100 Y100 E0 Z120

G1 X100 Y100 E0 Z100
G1 X100 Y100 E0 Z120
G1 X100 Y100 E0 Z100
G1 X100 Y100 E0 Z120
G1 X100 Y100 E0 Z100
G1 X100 Y100 E0 Z120
G1 X100 Y100 E0 Z100
G1 X100 Y100 E0 Z120
G1 X100 Y100 E0 Z100
G1 X100 Y100 E0 Z120
G1 X100 Y100 E0 Z100
G1 X100 Y100 E0 Z120
G1 X100 Y100 E0 Z100
G1 X100 Y100 E0 Z120
G1 X100 Y100 E0 Z100
G1 X100 Y100 E0 Z120
G1 X100 Y100 E0 Z100
G1 X100 Y100 E0 Z120
G1 X100 Y100 E0 Z100
G1 X100 Y100 E0 Z120

G1 X100 Y100 E0 Z100
G1 X100 Y100 E0 Z120
G1 X100 Y100 E0 Z100
G1 X100 Y100 E0 Z120
G1 X100 Y100 E0 Z100
G1 X100 Y100 E0 Z120
G1 X100 Y100 E0 Z100
G1 X100 Y100 E0 Z120
G1 X100 Y100 E0 Z100
G1 X100 Y100 E0 Z120
G1 X100 Y100 E0 Z100
G1 X100 Y100 E0 Z120
G1 X100 Y100 E0 Z100
G1 X100 Y100 E0 Z120
G1 X100 Y100 E0 Z100
G1 X100 Y100 E0 Z120
G1 X100 Y100 E0 Z100
G1 X100 Y100 E0 Z120
G1 X100 Y100 E0 Z100
G1 X100 Y100 E0 Z120

G1 X100 Y100 E0 Z100
G1 X100 Y100 E0 Z120
G1 X100 Y100 E0 Z100
G1 X100 Y100 E0 Z120
G1 X100 Y100 E0 Z100
G1 X100 Y100 E0 Z120
G1 X100 Y100 E0 Z100
G1 X100 Y100 E0 Z120
G1 X100 Y100 E0 Z100
G1 X100 Y100 E0 Z120
G1 X100 Y100 E0 Z100
G1 X100 Y100 E0 Z120
G1 X100 Y100 E0 Z100
G1 X100 Y100 E0 Z120
G1 X100 Y100 E0 Z100
G1 X100 Y100 E0 Z120
G1 X100 Y100 E0 Z100
G1 X100 Y100 E0 Z120
G1 X100 Y100 E0 Z100
G1 X100 Y100 E0 Z120

G1 X100 Y100 E0 Z100
G1 X100 Y100 E0 Z120
G1 X100 Y100 E0 Z100
G1 X100 Y100 E0 Z120
G1 X100 Y100 E0 Z100
G1 X100 Y100 E0 Z120
G1 X100 Y100 E0 Z100
G1 X100 Y100 E0 Z120
G1 X100 Y100 E0 Z100
G1 X100 Y100 E0 Z120
G1 X100 Y100 E0 Z100
G1 X100 Y100 E0 Z120
G1 X100 Y100 E0 Z100
G1 X100 Y100 E0 Z120
G1 X100 Y100 E0 Z100
G1 X100 Y100 E0 Z120
G1 X100 Y100 E0 Z100
G1 X100 Y100 E0 Z120
G1 X100 Y100 E0 Z100
G1 X100 Y100 E0 Z120

G1 X100 Y100 E0 Z100
G1 X100 Y100 E0 Z120
G1 X100 Y100 E0 Z100
G1 X100 Y100 E0 Z120
G1 X100 Y100 E0 Z100
G1 X100 Y100 E0 Z120
G1 X100 Y100 E0 Z100
G1 X100 Y100 E0 Z120
G1 X100 Y100 E0 Z100
G1 X100 Y100 E0 Z120
G1 X100 Y100 E0 Z100
G1 X100 Y100 E0 Z120
G1 X100 Y100 E0 Z100
G1 X100 Y100 E0 Z120
G1 X100 Y100 E0 Z100
G1 X100 Y100 E0 Z120
G1 X100 Y100 E0 Z100
G1 X100 Y100 E0 Z120
G1 X100 Y100 E0 Z100
G1 X100 Y100 E0 Z120

G4 P60000


G1 X100 Y100 E0 Z100
G1 X100 Y100 E0 Z120
G1 X100 Y100 E0 Z100
G1 X100 Y100 E0 Z120
G1 X100 Y100 E0 Z100
G1 X100 Y100 E0 Z120
G1 X100 Y100 E0 Z100
G1 X100 Y100 E0 Z120
G1 X100 Y100 E0 Z100
G1 X100 Y100 E0 Z120
G1 X100 Y100 E0 Z100
G1 X100 Y100 E0 Z120
G1 X100 Y100 E0 Z100
G1 X100 Y100 E0 Z120
G1 X100 Y100 E0 Z100
G1 X100 Y100 E0 Z120
G1 X100 Y100 E0 Z100
G1 X100 Y100 E0 Z120
G1 X100 Y100 E0 Z100
G1 X100 Y100 E0 Z120

G1 X100 Y100 E0 Z100
G1 X100 Y100 E0 Z120
G1 X100 Y100 E0 Z100
G1 X100 Y100 E0 Z120
G1 X100 Y100 E0 Z100
G1 X100 Y100 E0 Z120
G1 X100 Y100 E0 Z100
G1 X100 Y100 E0 Z120
G1 X100 Y100 E0 Z100
G1 X100 Y100 E0 Z120
G1 X100 Y100 E0 Z100
G1 X100 Y100 E0 Z120
G1 X100 Y100 E0 Z100
G1 X100 Y100 E0 Z120
G1 X100 Y100 E0 Z100
G1 X100 Y100 E0 Z120
G1 X100 Y100 E0 Z100
G1 X100 Y100 E0 Z120
G1 X100 Y100 E0 Z100
G1 X100 Y100 E0 Z120

G1 X100 Y100 E0 Z100
G1 X100 Y100 E0 Z120
G1 X100 Y100 E0 Z100
G1 X100 Y100 E0 Z120
G1 X100 Y100 E0 Z100
G1 X100 Y100 E0 Z120
G1 X100 Y100 E0 Z100
G1 X100 Y100 E0 Z120
G1 X100 Y100 E0 Z100
G1 X100 Y100 E0 Z120
G1 X100 Y100 E0 Z100
G1 X100 Y100 E0 Z120
G1 X100 Y100 E0 Z100
G1 X100 Y100 E0 Z120
G1 X100 Y100 E0 Z100
G1 X100 Y100 E0 Z120
G1 X100 Y100 E0 Z100
G1 X100 Y100 E0 Z120
G1 X100 Y100 E0 Z100
G1 X100 Y100 E0 Z120

G1 X100 Y100 E0 Z100
G1 X100 Y100 E0 Z120
G1 X100 Y100 E0 Z100
G1 X100 Y100 E0 Z120
G1 X100 Y100 E0 Z100
G1 X100 Y100 E0 Z120
G1 X100 Y100 E0 Z100
G1 X100 Y100 E0 Z120
G1 X100 Y100 E0 Z100
G1 X100 Y100 E0 Z120
G1 X100 Y100 E0 Z100
G1 X100 Y100 E0 Z120
G1 X100 Y100 E0 Z100
G1 X100 Y100 E0 Z120
G1 X100 Y100 E0 Z100
G1 X100 Y100 E0 Z120
G1 X100 Y100 E0 Z100
G1 X100 Y100 E0 Z120
G1 X100 Y100 E0 Z100
G1 X100 Y100 E0 Z120

G1 X100 Y100 E0 Z100
G1 X100 Y100 E0 Z120
G1 X100 Y100 E0 Z100
G1 X100 Y100 E0 Z120
G1 X100 Y100 E0 Z100
G1 X100 Y100 E0 Z120
G1 X100 Y100 E0 Z100
G1 X100 Y100 E0 Z120
G1 X100 Y100 E0 Z100
G1 X100 Y100 E0 Z120
G1 X100 Y100 E0 Z100
G1 X100 Y100 E0 Z120
G1 X100 Y100 E0 Z100
G1 X100 Y100 E0 Z120
G1 X100 Y100 E0 Z100
G1 X100 Y100 E0 Z120
G1 X100 Y100 E0 Z100
G1 X100 Y100 E0 Z120
G1 X100 Y100 E0 Z100
G1 X100 Y100 E0 Z120

G1 X100 Y100 E0 Z100
G1 X100 Y100 E0 Z120
G1 X100 Y100 E0 Z100
G1 X100 Y100 E0 Z120
G1 X100 Y100 E0 Z100
G1 X100 Y100 E0 Z120
G1 X100 Y100 E0 Z100
G1 X100 Y100 E0 Z120
G1 X100 Y100 E0 Z100
G1 X100 Y100 E0 Z120
G1 X100 Y100 E0 Z100
G1 X100 Y100 E0 Z120
G1 X100 Y100 E0 Z100
G1 X100 Y100 E0 Z120
G1 X100 Y100 E0 Z100
G1 X100 Y100 E0 Z120
G1 X100 Y100 E0 Z100
G1 X100 Y100 E0 Z120
G1 X100 Y100 E0 Z100
G1 X100 Y100 E0 Z120

G1 X100 Y100 E0 Z100
G1 X100 Y100 E0 Z120
G1 X100 Y100 E0 Z100
G1 X100 Y100 E0 Z120
G1 X100 Y100 E0 Z100
G1 X100 Y100 E0 Z120
G1 X100 Y100 E0 Z100
G1 X100 Y100 E0 Z120
G1 X100 Y100 E0 Z100
G1 X100 Y100 E0 Z120
G1 X100 Y100 E0 Z100
G1 X100 Y100 E0 Z120
G1 X100 Y100 E0 Z100
G1 X100 Y100 E0 Z120
G1 X100 Y100 E0 Z100
G1 X100 Y100 E0 Z120
G1 X100 Y100 E0 Z100
G1 X100 Y100 E0 Z120
G1 X100 Y100 E0 Z100
G1 X100 Y100 E0 Z120

G1 X100 Y100 E0 Z100
G1 X100 Y100 E0 Z120
G1 X100 Y100 E0 Z100
G1 X100 Y100 E0 Z120
G1 X100 Y100 E0 Z100
G1 X100 Y100 E0 Z120
G1 X100 Y100 E0 Z100
G1 X100 Y100 E0 Z120
G1 X100 Y100 E0 Z100
G1 X100 Y100 E0 Z120
G1 X100 Y100 E0 Z100
G1 X100 Y100 E0 Z120
G1 X100 Y100 E0 Z100
G1 X100 Y100 E0 Z120
G1 X100 Y100 E0 Z100
G1 X100 Y100 E0 Z120
G1 X100 Y100 E0 Z100
G1 X100 Y100 E0 Z120
G1 X100 Y100 E0 Z100
G1 X100 Y100 E0 Z120

G1 X100 Y100 E0 Z100
G1 X100 Y100 E0 Z120
G1 X100 Y100 E0 Z100
G1 X100 Y100 E0 Z120
G1 X100 Y100 E0 Z100
G1 X100 Y100 E0 Z120
G1 X100 Y100 E0 Z100
G1 X100 Y100 E0 Z120
G1 X100 Y100 E0 Z100
G1 X100 Y100 E0 Z120
G1 X100 Y100 E0 Z100
G1 X100 Y100 E0 Z120
G1 X100 Y100 E0 Z100
G1 X100 Y100 E0 Z120
G1 X100 Y100 E0 Z100
G1 X100 Y100 E0 Z120
G1 X100 Y100 E0 Z100
G1 X100 Y100 E0 Z120
G1 X100 Y100 E0 Z100
G1 X100 Y100 E0 Z120

G1 X100 Y100 E0 Z100
G1 X100 Y100 E0 Z120
G1 X100 Y100 E0 Z100
G1 X100 Y100 E0 Z120
G1 X100 Y100 E0 Z100
G1 X100 Y100 E0 Z120
G1 X100 Y100 E0 Z100
G1 X100 Y100 E0 Z120
G1 X100 Y100 E0 Z100
G1 X100 Y100 E0 Z120
G1 X100 Y100 E0 Z100
G1 X100 Y100 E0 Z120
G1 X100 Y100 E0 Z100
G1 X100 Y100 E0 Z120
G1 X100 Y100 E0 Z100
G1 X100 Y100 E0 Z120
G1 X100 Y100 E0 Z100
G1 X100 Y100 E0 Z120
G1 X100 Y100 E0 Z100
G1 X100 Y100 E0 Z120

G4 P60000

G1 X100 Y100 E0 Z100
G1 X100 Y100 E0 Z120
G1 X100 Y100 E0 Z100
G1 X100 Y100 E0 Z120
G1 X100 Y100 E0 Z100
G1 X100 Y100 E0 Z120
G1 X100 Y100 E0 Z100
G1 X100 Y100 E0 Z120
G1 X100 Y100 E0 Z100
G1 X100 Y100 E0 Z120
G1 X100 Y100 E0 Z100
G1 X100 Y100 E0 Z120
G1 X100 Y100 E0 Z100
G1 X100 Y100 E0 Z120
G1 X100 Y100 E0 Z100
G1 X100 Y100 E0 Z120
G1 X100 Y100 E0 Z100
G1 X100 Y100 E0 Z120
G1 X100 Y100 E0 Z100
G1 X100 Y100 E0 Z120

G1 X100 Y100 E0 Z100
G1 X100 Y100 E0 Z120
G1 X100 Y100 E0 Z100
G1 X100 Y100 E0 Z120
G1 X100 Y100 E0 Z100
G1 X100 Y100 E0 Z120
G1 X100 Y100 E0 Z100
G1 X100 Y100 E0 Z120
G1 X100 Y100 E0 Z100
G1 X100 Y100 E0 Z120
G1 X100 Y100 E0 Z100
G1 X100 Y100 E0 Z120
G1 X100 Y100 E0 Z100
G1 X100 Y100 E0 Z120
G1 X100 Y100 E0 Z100
G1 X100 Y100 E0 Z120
G1 X100 Y100 E0 Z100
G1 X100 Y100 E0 Z120
G1 X100 Y100 E0 Z100
G1 X100 Y100 E0 Z120

G1 X100 Y100 E0 Z100
G1 X100 Y100 E0 Z120
G1 X100 Y100 E0 Z100
G1 X100 Y100 E0 Z120
G1 X100 Y100 E0 Z100
G1 X100 Y100 E0 Z120
G1 X100 Y100 E0 Z100
G1 X100 Y100 E0 Z120
G1 X100 Y100 E0 Z100
G1 X100 Y100 E0 Z120
G1 X100 Y100 E0 Z100
G1 X100 Y100 E0 Z120
G1 X100 Y100 E0 Z100
G1 X100 Y100 E0 Z120
G1 X100 Y100 E0 Z100
G1 X100 Y100 E0 Z120
G1 X100 Y100 E0 Z100
G1 X100 Y100 E0 Z120
G1 X100 Y100 E0 Z100
G1 X100 Y100 E0 Z120

G1 X100 Y100 E0 Z100
G1 X100 Y100 E0 Z120
G1 X100 Y100 E0 Z100
G1 X100 Y100 E0 Z120
G1 X100 Y100 E0 Z100
G1 X100 Y100 E0 Z120
G1 X100 Y100 E0 Z100
G1 X100 Y100 E0 Z120
G1 X100 Y100 E0 Z100
G1 X100 Y100 E0 Z120
G1 X100 Y100 E0 Z100
G1 X100 Y100 E0 Z120
G1 X100 Y100 E0 Z100
G1 X100 Y100 E0 Z120
G1 X100 Y100 E0 Z100
G1 X100 Y100 E0 Z120
G1 X100 Y100 E0 Z100
G1 X100 Y100 E0 Z120
G1 X100 Y100 E0 Z100
G1 X100 Y100 E0 Z120

G1 X100 Y100 E0 Z100
G1 X100 Y100 E0 Z120
G1 X100 Y100 E0 Z100
G1 X100 Y100 E0 Z120
G1 X100 Y100 E0 Z100
G1 X100 Y100 E0 Z120
G1 X100 Y100 E0 Z100
G1 X100 Y100 E0 Z120
G1 X100 Y100 E0 Z100
G1 X100 Y100 E0 Z120
G1 X100 Y100 E0 Z100
G1 X100 Y100 E0 Z120
G1 X100 Y100 E0 Z100
G1 X100 Y100 E0 Z120
G1 X100 Y100 E0 Z100
G1 X100 Y100 E0 Z120
G1 X100 Y100 E0 Z100
G1 X100 Y100 E0 Z120
G1 X100 Y100 E0 Z100
G1 X100 Y100 E0 Z120

G1 X100 Y100 E0 Z100
G1 X100 Y100 E0 Z120
G1 X100 Y100 E0 Z100
G1 X100 Y100 E0 Z120
G1 X100 Y100 E0 Z100
G1 X100 Y100 E0 Z120
G1 X100 Y100 E0 Z100
G1 X100 Y100 E0 Z120
G1 X100 Y100 E0 Z100
G1 X100 Y100 E0 Z120
G1 X100 Y100 E0 Z100
G1 X100 Y100 E0 Z120
G1 X100 Y100 E0 Z100
G1 X100 Y100 E0 Z120
G1 X100 Y100 E0 Z100
G1 X100 Y100 E0 Z120
G1 X100 Y100 E0 Z100
G1 X100 Y100 E0 Z120
G1 X100 Y100 E0 Z100
G1 X100 Y100 E0 Z120

G1 X100 Y100 E0 Z100
G1 X100 Y100 E0 Z120
G1 X100 Y100 E0 Z100
G1 X100 Y100 E0 Z120
G1 X100 Y100 E0 Z100
G1 X100 Y100 E0 Z120
G1 X100 Y100 E0 Z100
G1 X100 Y100 E0 Z120
G1 X100 Y100 E0 Z100
G1 X100 Y100 E0 Z120
G1 X100 Y100 E0 Z100
G1 X100 Y100 E0 Z120
G1 X100 Y100 E0 Z100
G1 X100 Y100 E0 Z120
G1 X100 Y100 E0 Z100
G1 X100 Y100 E0 Z120
G1 X100 Y100 E0 Z100
G1 X100 Y100 E0 Z120
G1 X100 Y100 E0 Z100
G1 X100 Y100 E0 Z120

G1 X100 Y100 E0 Z100
G1 X100 Y100 E0 Z120
G1 X100 Y100 E0 Z100
G1 X100 Y100 E0 Z120
G1 X100 Y100 E0 Z100
G1 X100 Y100 E0 Z120
G1 X100 Y100 E0 Z100
G1 X100 Y100 E0 Z120
G1 X100 Y100 E0 Z100
G1 X100 Y100 E0 Z120
G1 X100 Y100 E0 Z100
G1 X100 Y100 E0 Z120
G1 X100 Y100 E0 Z100
G1 X100 Y100 E0 Z120
G1 X100 Y100 E0 Z100
G1 X100 Y100 E0 Z120
G1 X100 Y100 E0 Z100
G1 X100 Y100 E0 Z120
G1 X100 Y100 E0 Z100
G1 X100 Y100 E0 Z120

G1 X100 Y100 E0 Z100
G1 X100 Y100 E0 Z120
G1 X100 Y100 E0 Z100
G1 X100 Y100 E0 Z120
G1 X100 Y100 E0 Z100
G1 X100 Y100 E0 Z120
G1 X100 Y100 E0 Z100
G1 X100 Y100 E0 Z120
G1 X100 Y100 E0 Z100
G1 X100 Y100 E0 Z120
G1 X100 Y100 E0 Z100
G1 X100 Y100 E0 Z120
G1 X100 Y100 E0 Z100
G1 X100 Y100 E0 Z120
G1 X100 Y100 E0 Z100
G1 X100 Y100 E0 Z120
G1 X100 Y100 E0 Z100
G1 X100 Y100 E0 Z120
G1 X100 Y100 E0 Z100
G1 X100 Y100 E0 Z120

G1 X100 Y100 E0 Z100
G1 X100 Y100 E0 Z120
G1 X100 Y100 E0 Z100
G1 X100 Y100 E0 Z120
G1 X100 Y100 E0 Z100
G1 X100 Y100 E0 Z120
G1 X100 Y100 E0 Z100
G1 X100 Y100 E0 Z120
G1 X100 Y100 E0 Z100
G1 X100 Y100 E0 Z120
G1 X100 Y100 E0 Z100
G1 X100 Y100 E0 Z120
G1 X100 Y100 E0 Z100
G1 X100 Y100 E0 Z120
G1 X100 Y100 E0 Z100
G1 X100 Y100 E0 Z120
G1 X100 Y100 E0 Z100
G1 X100 Y100 E0 Z120
G1 X100 Y100 E0 Z100
G1 X100 Y100 E0 Z120

G4 P60000

G1 X100 Y100 E0 Z100
G1 X100 Y100 E0 Z120
G1 X100 Y100 E0 Z100
G1 X100 Y100 E0 Z120
G1 X100 Y100 E0 Z100
G1 X100 Y100 E0 Z120
G1 X100 Y100 E0 Z100
G1 X100 Y100 E0 Z120
G1 X100 Y100 E0 Z100
G1 X100 Y100 E0 Z120
G1 X100 Y100 E0 Z100
G1 X100 Y100 E0 Z120
G1 X100 Y100 E0 Z100
G1 X100 Y100 E0 Z120
G1 X100 Y100 E0 Z100
G1 X100 Y100 E0 Z120
G1 X100 Y100 E0 Z100
G1 X100 Y100 E0 Z120
G1 X100 Y100 E0 Z100
G1 X100 Y100 E0 Z120

G1 X100 Y100 E0 Z100
G1 X100 Y100 E0 Z120
G1 X100 Y100 E0 Z100
G1 X100 Y100 E0 Z120
G1 X100 Y100 E0 Z100
G1 X100 Y100 E0 Z120
G1 X100 Y100 E0 Z100
G1 X100 Y100 E0 Z120
G1 X100 Y100 E0 Z100
G1 X100 Y100 E0 Z120
G1 X100 Y100 E0 Z100
G1 X100 Y100 E0 Z120
G1 X100 Y100 E0 Z100
G1 X100 Y100 E0 Z120
G1 X100 Y100 E0 Z100
G1 X100 Y100 E0 Z120
G1 X100 Y100 E0 Z100
G1 X100 Y100 E0 Z120
G1 X100 Y100 E0 Z100
G1 X100 Y100 E0 Z120

G1 X100 Y100 E0 Z100
G1 X100 Y100 E0 Z120
G1 X100 Y100 E0 Z100
G1 X100 Y100 E0 Z120
G1 X100 Y100 E0 Z100
G1 X100 Y100 E0 Z120
G1 X100 Y100 E0 Z100
G1 X100 Y100 E0 Z120
G1 X100 Y100 E0 Z100
G1 X100 Y100 E0 Z120
G1 X100 Y100 E0 Z100
G1 X100 Y100 E0 Z120
G1 X100 Y100 E0 Z100
G1 X100 Y100 E0 Z120
G1 X100 Y100 E0 Z100
G1 X100 Y100 E0 Z120
G1 X100 Y100 E0 Z100
G1 X100 Y100 E0 Z120
G1 X100 Y100 E0 Z100
G1 X100 Y100 E0 Z120

G1 X100 Y100 E0 Z100
G1 X100 Y100 E0 Z120
G1 X100 Y100 E0 Z100
G1 X100 Y100 E0 Z120
G1 X100 Y100 E0 Z100
G1 X100 Y100 E0 Z120
G1 X100 Y100 E0 Z100
G1 X100 Y100 E0 Z120
G1 X100 Y100 E0 Z100
G1 X100 Y100 E0 Z120
G1 X100 Y100 E0 Z100
G1 X100 Y100 E0 Z120
G1 X100 Y100 E0 Z100
G1 X100 Y100 E0 Z120
G1 X100 Y100 E0 Z100
G1 X100 Y100 E0 Z120
G1 X100 Y100 E0 Z100
